images/logo-256.svg

<svg xmlns="http://www.w3.org/2000/svg" width="263.1" height="120.8" viewBox="0 0 263.1 120.8"><g fill="#e57c63" data-name="Layer 1"><path d="M134.5 61.6h-10.3V39.84h10.3z"/><path d="M252.6 2.4H86.3l11.5 21.1a7.5 7.5 0 0 1 0 7.2L86.2 51.9h166.4a6.9 6.9 0 0 0 6.9-6.9V9.3a6.9 6.9 0 0 0-6.9-6.9z"/><path d="M90 28.8a3.5 3.5 0 0 0 0-3.4l-12.5-23H10.4a6.9 6.9 0 0 0-6.9 6.9V45a6.9 6.9 0 0 0 6.9 6.9h67zm-72.5 2a3.7 3.7 0 1 1 3.7-3.7 3.7 3.7 0 0 1-3.7 3.7zm16.5 0a3.7 3.7 0 1 1 3.7-3.7 3.7 3.7 0 0 1-3.7 3.7zm16.5 0a3.7 3.7 0 1 1 3.7-3.7 3.7 3.7 0 0 1-3.7 3.7zm78.9 26.6a30.5 30.5 0 1 0 30.5 30.5 30.5 30.5 0 0 0-30.5-30.5zM149 91.3a2.9 2.9 0 0 1-2.9 2.9h-10.6v10.5a2.9 2.9 0 0 1-2.9 2.9h-6.4a2.9 2.9 0 0 1-2.9-2.9V94.2h-10.6a2.9 2.9 0 0 1-2.9-2.9v-6.5a2.9 2.9 0 0 1 2.9-2.9h10.5V71.4a2.9 2.9 0 0 1 2.9-2.9h6.4a2.9 2.9 0 0 1 2.9 2.9v10.5H146a2.9 2.9 0 0 1 2.9 2.9z"/></g></svg>

<svg xmlns="http://www.w3.org/2000/svg" width="263.1" height="120.8" viewBox="0 0 263.1 120.8"><title>lrlogo256</title><g id="Layer_1" data-name="Layer 1"><rect x="124.2" y="39.8" width="10.3" height="21.76" transform="translate(258.7 101.4) rotate(180)" fill="#e57c63"/><path d="M252.6,2.4H86.3L97.8,23.5a7.5,7.5,0,0,1,0,7.2L86.2,51.9H252.6a6.9,6.9,0,0,0,6.9-6.9V9.3A6.9,6.9,0,0,0,252.6,2.4Z" fill="#e57c63"/><path d="M90,28.8a3.5,3.5,0,0,0,0-3.4L77.5,2.4H10.4A6.9,6.9,0,0,0,3.5,9.3V45a6.9,6.9,0,0,0,6.9,6.9H77.4ZM17.5,30.8a3.7,3.7,0,1,1,3.7-3.7A3.7,3.7,0,0,1,17.5,30.8Zm16.5,0a3.7,3.7,0,1,1,3.7-3.7A3.7,3.7,0,0,1,34,30.8Zm16.5,0a3.7,3.7,0,1,1,3.7-3.7A3.7,3.7,0,0,1,50.5,30.8Z" fill="#e57c63"/><path d="M129.4,57.4a30.5,30.5,0,1,0,30.5,30.5A30.5,30.5,0,0,0,129.4,57.4Zm19.6,33.9a2.9,2.9,0,0,1-2.9,2.9H135.5v10.5a2.9,2.9,0,0,1-2.9,2.9h-6.4a2.9,2.9,0,0,1-2.9-2.9V94.2H112.7a2.9,2.9,0,0,1-2.9-2.9V84.8a2.9,2.9,0,0,1,2.9-2.9h10.5V71.4a2.9,2.9,0,0,1,2.9-2.9h6.4a2.9,2.9,0,0,1,2.9,2.9V81.9H146a2.9,2.9,0,0,1,2.9,2.9Z" fill="#e57c63"/></g></svg>
